Sources/FrostedUI/Resources/Icons.xcassets/xDotCom20.imageset/x-dot-com-20.svg

<svg width="20" height="20" viewBox="0 0 20 20" fill="none" xmlns="http://www.w3.org/2000/svg" data-fui-icon="true">
  <path
    d="M14.5028 2.91669H16.9043L11.6575 8.91752L17.83 17.0834H12.997L9.21167 12.1309L4.88031 17.0834H2.47724L8.08924 10.6648L2.16797 2.91669H7.12366L10.5453 7.44348L14.5028 2.91669ZM13.6598 15.6449H14.9906L6.40056 4.2796H4.97252L13.6598 15.6449Z"
    fill="currentColor"
  />
</svg>

<svg xmlns="http://www.w3.org/2000/svg" width="20" height="20" fill="none" data-fui-icon="true" viewBox="0 0 20 20"><path fill="currentColor" d="M14.503 2.917h2.401l-5.246 6 6.172 8.166h-4.833l-3.785-4.952-4.332 4.952H2.477l5.612-6.418-5.921-7.748h4.956l3.421 4.526zm-.843 12.728h1.33L6.4 4.28H4.974z"/></svg>
